build/img/icon-gift.svg

<svg width="58" height="62" viewBox="0 0 58 62" fill="none" xmlns="http://www.w3.org/2000/svg">
<path d="M54.0156 28.7129H4.03096C2.27657 28.7129 0.849411 27.2954 0.849411 25.5526V16.0845C0.849411 14.3417 2.27657 12.9236 4.03096 12.9236H54.0149C55.7687 12.9236 57.1953 14.3417 57.1953 16.0845V25.5533C57.1959 27.2954 55.7693 28.7129 54.0156 28.7129ZM4.03096 15.3457C3.62755 15.3457 3.28691 15.6842 3.28691 16.0845V25.5533C3.28691 25.9602 3.62085 26.2914 4.03096 26.2914H54.0149C54.4244 26.2914 54.7578 25.9602 54.7578 25.5533V16.0845C54.7578 15.6836 54.4171 15.3457 54.0149 15.3457H4.03096Z" fill="white"/>
<path d="M47.0447 61.1491H10.999C7.62182 61.1491 4.87415 58.4193 4.87415 55.0628V27.5018C4.87415 26.8333 5.42015 26.2908 6.0929 26.2908C6.76565 26.2908 7.31165 26.8333 7.31165 27.5018V55.0628C7.31165 57.0835 8.9661 58.7269 10.999 58.7269H47.0447C49.077 58.7269 50.7308 57.0835 50.7308 55.0628V27.5018C50.7308 26.8333 51.2768 26.2908 51.9496 26.2908C52.6223 26.2908 53.1683 26.8333 53.1683 27.5018V55.0628C53.1683 58.4193 50.4213 61.1491 47.0447 61.1491Z" fill="white"/>
<path d="M29.0225 61.1491C28.3498 61.1491 27.8038 60.6071 27.8038 59.938V27.5018C27.8038 26.8333 28.3498 26.2908 29.0225 26.2908C29.6953 26.2908 30.2413 26.8333 30.2413 27.5018V59.9374C30.2413 60.6071 29.6959 61.1491 29.0225 61.1491Z" fill="white"/>
<path d="M13.8113 15.3416C9.99661 13.2876 8.57311 8.53296 10.6383 4.7417C12.7022 0.95225 17.4864 -0.462889 21.303 1.58746C27.117 4.71687 30.2565 13.4475 30.3869 13.8175L28.0877 14.621C28.0585 14.5387 25.1256 6.39965 20.1433 3.71773C17.5078 2.30199 14.2062 3.27933 12.7821 5.89464C11.3567 8.51237 12.339 11.7944 14.9734 13.2119L13.8113 15.3416Z" fill="white"/>
<path d="M44.2313 15.3416L43.071 13.2113C44.3477 12.524 45.2782 11.385 45.6926 10.0038C46.1063 8.62195 45.9534 7.16261 45.2617 5.89522C44.5719 4.62662 43.4263 3.70258 42.0363 3.29142C40.6457 2.88026 39.1783 3.03164 37.9023 3.71771C32.9201 6.39903 29.9871 14.538 29.9579 14.6204L27.6587 13.8168C27.7891 13.4469 30.928 4.71624 36.7421 1.58744C38.5897 0.593146 40.7182 0.373942 42.7316 0.96979C44.7468 1.56503 46.4061 2.90508 47.4061 4.74168C48.4073 6.57766 48.6285 8.69159 48.0289 10.6941C47.4287 12.696 46.0801 14.3461 44.2313 15.3416Z" fill="white"/>
<path d="M51.9496 44.9317H6.0929C5.42015 44.9317 4.87415 44.3891 4.87415 43.7206C4.87415 43.0521 5.42015 42.5095 6.0929 42.5095H51.9496C52.6223 42.5095 53.1683 43.0521 53.1683 43.7206C53.1683 44.3891 52.6229 44.9317 51.9496 44.9317Z" fill="white"/>
</svg>

<svg width="58" height="62" fill="none" xmlns="http://www.w3.org/2000/svg"><path d="M54.016 28.713H4.03c-1.754 0-3.182-1.418-3.182-3.16v-9.469c0-1.742 1.428-3.16 3.182-3.16h49.984c1.754 0 3.18 1.418 3.18 3.16v9.47c0 1.741-1.426 3.159-3.18 3.159zM4.03 15.346a.751.751 0 00-.744.738v9.47c0 .406.334.737.744.737h49.984a.74.74 0 00.743-.738v-9.469a.75.75 0 00-.743-.738H4.03z" fill="#fff"/><path d="M47.045 61.15H10.999c-3.377 0-6.125-2.73-6.125-6.087V27.502c0-.669.546-1.211 1.219-1.211s1.219.542 1.219 1.21v27.562c0 2.02 1.654 3.664 3.687 3.664h36.046c2.032 0 3.686-1.643 3.686-3.664V27.502c0-.669.546-1.211 1.219-1.211.672 0 1.218.542 1.218 1.21v27.562c0 3.356-2.747 6.086-6.123 6.086z" fill="#fff"/><path d="M29.023 61.15a1.215 1.215 0 01-1.22-1.212V27.502c0-.669.547-1.211 1.22-1.211.672 0 1.218.542 1.218 1.21v32.436c0 .67-.545 1.212-1.218 1.212zM13.811 15.342c-3.814-2.054-5.238-6.809-3.173-10.6 2.064-3.79 6.848-5.205 10.665-3.155 5.814 3.13 8.953 11.86 9.084 12.23l-2.3.804c-.029-.082-2.961-8.221-7.944-10.903-2.635-1.416-5.937-.439-7.36 2.177-1.426 2.617-.444 5.9 2.19 7.317l-1.162 2.13z" fill="#fff"/><path d="M44.231 15.342l-1.16-2.13a5.376 5.376 0 002.622-3.208 5.327 5.327 0 00-.431-4.109 5.382 5.382 0 00-3.226-2.604 5.426 5.426 0 00-4.134.427c-4.982 2.681-7.915 10.82-7.944 10.902l-2.3-.803c.131-.37 3.27-9.1 9.084-12.23a7.859 7.859 0 015.99-.617 7.8 7.8 0 014.674 3.772 7.72 7.72 0 01.623 5.952 7.788 7.788 0 01-3.798 4.648zm7.719 29.59H6.093a1.215 1.215 0 01-1.219-1.211c0-.669.546-1.211 1.219-1.211H51.95c.672 0 1.218.542 1.218 1.21 0 .67-.545 1.212-1.218 1.212z" fill="#fff"/></svg>
